X:1
T:Title
%%score [ ( 1 2 ) ( 3 4 ) ] { ( 5 6 ) | ( 7 8 ) }
L:1/8
Q:1/4=120
M:4/4
K:F
V:1 treble nm="Midi_74"
V:2 treble 
V:3 bass nm="Midi_74"
V:4 bass 
V:5 treble nm="Org."
V:6 treble 
V:7 bass 
V:8 bass 
V:1
 d8 | d4 ^c4 | =c8 || =B8 | _B4 A4 | G4 F4 | E8 || F8 | G4 G4 | A8 || f8 | e4 d4 | %12
"^John Camidge\n(1790-1859)" F4 E4 | D8 |] %14
V:2
 A8 | G4 G4 | ^F8 || =F8 | E4 F4 | ^C4 D4 |{D} ^C8 || D8 | F4 E4 | F8 || A8 | G4 F4 | D4 ^C4 | %13
 D8 |] %14
V:3
 F8 | E4 E4 | ^D8 || =D8 | ^C4 D4 | A,4 A,4 | A,8 || (A,6 =B,2) | C4 _B,4 | A,8 || C8 | B,4 A,4 | %12
 A,4 G,4 | F,8 |] %14
V:4
 (D6 C2) | B,4 A,4 | A,8 || ^G,8 | =G,4 F,4 | E,4 D,4 | A,,8 || D,8 | C,4 C,4 | F,8 || F,8 | %11
 C,4 D,4 | A,,4 A,,4 | D,8 |] %14
V:5
 d8 | d4 ^c4 | =c8 || =B8 | _B4 A4 | G4 F4 | E8 || F8 | G4 G4 | A8 || f8 | e4 d4 | F4 E4 | D8 |] %14
V:6
 [FA]8 | [EG]4 [EG]4 | [^D^F]8 || [=D=F]8 | [^CE]4 [DF]4 | [A,^C]4 [A,D]4 | [A,^C]8 || D8 | %8
 [CF]4 [B,CE]4 | [A,CF]8 || [Ac]8 | [GB]4 [FA]4 | [A,D]4 [A,^C]4 | [A,D]8 |] %14
V:7
 x8 | x8 | x8 || x8 | x8 | x8 | x8 || A,6 [G,=B,]2 | G,4 x4 | x8 || x8 | x8 | x8 | x8 |] %14
V:8
 [D,D]6 [C,C]2 | [B,,B,]4 [A,,A,]4 | [A,,A,]8 || [^G,,^G,]8 | [=G,,=G,]4 [F,,F,]4 | %5
 [E,,E,]4 [D,,D,]4 | A,,8 || [D,,D,]8 | [C,,C,]4 [C,,C,]4 | [F,,C,]8 || [F,,F,]8 | C,4 D,4 | %12
 A,,4"^8" A,,4 | [D,,D,F,]8 |] %14

